X: 3265
T: ATHOL HIGHLANDERS
N: This tune usually has 4 parts; this is the first 2 parts.
%R: jig
B: James Kerr "Merry Melodies" v.3 p.29 #265
Z: 2016 John Chambers <jc:trillian.mit.edu>
M: 6/8
L: 1/8
K: G
|:\
d3 dBG | dBG ABc | d3 dBG | ABc BAG |\
d3 dBG | dBG ABc | dgd edc | BcA G3 :|
|:\
GBd GBd | Gce Gce | GBd GBd | ABc B2A |\
GBd GBd | Gce Gce | dgd edc | BcA G3 :|

%%sep 1 1 500
%%sep 1 1 500

